X: 1675
T: The Humors of Ballyconnell
M:4/4
L:1/8
B:O'Neill's 1675
N:"collected by J.O'Neill"
K:A
e-d \
| cBcdcBAG | AGEFGABd | cdcBAGEG | ABcd e2e-d |
| cBcd cBAG | AGAB cdcB | ABAGEDEG | A2AAA2 :|
|: E2 \
| ABcde2 d-c | dcdeg2e-^d | efga bagb | a2aaa2a-f |
| gedB cBAG | AGABcdcB | ABAGEDEG | A2AAA2 :|


